;FLAVOR:Marlin
;TIME:1413
;Filament used: 0.711192m
;Layer height: 0.2
;MINX:107.35
;MINY:87.35
;MINZ:0.1
;MAXX:142.65
;MAXY:122.65
;MAXZ:17.9
;Generated with Cura_SteamEngine 4.9.0
M82 ;absolute extrusion mode
G21 ; set units to millimeters
G90 ; use absolute positioning
M82 ; absolute extrusion mode
M104 S200 ; set extruder temp
M140 S70 ; set bed temp
M190 S70 ; wait for bed temp
M109 S200 ; wait for extruder temp
G28 W ; home all without mesh bed level
G80 ; mesh bed leveling
G92 E0.0 ; reset extruder distance position
G1 Y-3.0 F1000.0 ; go outside print area
G1 X60.0 E9.0 F1000.0 ; intro line
G1 X100.0 E21.5 F1000.0 ; intro line
G92 E0.0 ; reset extruder distance position
G92 E0
G92 E0
G1 F2100 E-0.8
;LAYER_COUNT:90
;LAYER:0
M107
G0 F1440 X110.821 Y94.53 Z0.1
;TYPE:SKIRT
G1 F2100 E0
G1 F300 X111.764 Y93.495 E0.02678
G1 X113.495 Y91.764 E0.07359
G1 X114.296 Y91.019 E0.09452
G1 X115.149 Y90.336 E0.11541
G1 X116.05 Y89.716 E0.13633
G1 X116.994 Y89.164 E0.15724
G1 X118.257 Y88.56 E0.18402
G1 X118.34 Y88.525 E0.18574
G1 X119.363 Y88.137 E0.20667
G1 X120.41 Y87.825 E0.22756
G1 X121.478 Y87.59 E0.24847
G1 X122.561 Y87.435 E0.2694
G1 X124.149 Y87.35 E0.29981
G1 X125.851 Y87.35 E0.33236
G1 X126.944 Y87.39 E0.35328
G1 X128.031 Y87.51 E0.37419
G1 X129.106 Y87.709 E0.3951
G1 X130.164 Y87.986 E0.41601
G1 X131.66 Y88.525 E0.44643
G1 X131.743 Y88.56 E0.44815
G1 X132.734 Y89.021 E0.46905
G1 X133.689 Y89.554 E0.48997
G1 X134.603 Y90.155 E0.51089
G1 X135.47 Y90.821 E0.5318
G1 X136.505 Y91.764 E0.55857
G1 X138.236 Y93.495 E0.60539
G1 X138.981 Y94.296 E0.62631
G1 X139.664 Y95.149 E0.64721
G1 X140.284 Y96.05 E0.66813
G1 X140.836 Y96.994 E0.68904
G1 X141.44 Y98.257 E0.71581
G1 X141.475 Y98.34 E0.71754
G1 X141.863 Y99.363 E0.73846
G1 X142.175 Y100.41 E0.75935
G1 X142.41 Y101.478 E0.78027
G1 X142.565 Y102.561 E0.80119
G1 X142.65 Y104.149 E0.8316
G1 X142.65 Y105.851 E0.86415
G1 X142.61 Y106.944 E0.88507
G1 X142.49 Y108.031 E0.90599
G1 X142.291 Y109.106 E0.92689
G1 X142.014 Y110.164 E0.94781
G1 X141.475 Y111.66 E0.97822
G1 X141.44 Y111.743 E0.97994
G1 X140.979 Y112.734 E1.00085
G1 X140.446 Y113.689 E1.02176
G1 X139.845 Y114.603 E1.04268
G1 X139.179 Y115.47 E1.06359
G1 X138.236 Y116.505 E1.09037
G1 X136.505 Y118.236 E1.13719
G1 X135.704 Y118.981 E1.15811
G1 X134.851 Y119.664 E1.179
G1 X133.95 Y120.284 E1.19992
G1 X133.006 Y120.836 E1.22083
G1 X131.743 Y121.44 E1.24761
G1 X131.66 Y121.475 E1.24933
G1 X130.637 Y121.863 E1.27026
G1 X129.59 Y122.175 E1.29115
G1 X128.522 Y122.41 E1.31206
G1 X127.439 Y122.565 E1.33299
G1 X125.851 Y122.65 E1.3634
G1 X124.149 Y122.65 E1.39595
G1 X123.056 Y122.61 E1.41687
G1 X121.969 Y122.49 E1.43778
G1 X120.894 Y122.291 E1.45869
G1 X119.836 Y122.014 E1.47961
G1 X118.34 Y121.475 E1.51002
G1 X118.257 Y121.44 E1.51174
G1 X117.266 Y120.979 E1.53264
G1 X116.311 Y120.446 E1.55356
G1 X115.397 Y119.845 E1.57448
G1 X114.53 Y119.179 E1.59539
G1 X113.495 Y118.236 E1.62216
G1 X111.764 Y116.505 E1.66898
G1 X111.019 Y115.704 E1.6899
G1 X110.336 Y114.851 E1.7108
G1 X109.716 Y113.95 E1.73172
G1 X109.164 Y113.006 E1.75263
G1 X108.56 Y111.743 E1.7794
G1 X108.525 Y111.66 E1.78113
G1 X108.137 Y110.637 E1.80205
G1 X107.825 Y109.59 E1.82294
G1 X107.59 Y108.522 E1.84386
G1 X107.435 Y107.439 E1.86478
G1 X107.35 Y105.851 E1.89519
G1 X107.35 Y104.149 E1.92774
G1 X107.39 Y103.056 E1.94866
G1 X107.51 Y101.969 E1.96958
G1 X107.709 Y100.894 E1.99048
G1 X107.986 Y99.836 E2.0114
G1 X108.525 Y98.34 E2.04181
G1 X108.56 Y98.257 E2.04353
G1 X109.021 Y97.266 E2.06444
G1 X109.554 Y96.311 E2.08535
G1 X110.155 Y95.397 E2.10627
G1 X110.821 Y94.53 E2.12718
G0 F1440 X111.218 Y94.772
G1 F300 X112.089 Y93.82 E2.15186
G1 X113.82 Y92.089 E2.19868
G1 X114.609 Y91.357 E2.21926
G1 X115.45 Y90.685 E2.23985
G1 X116.339 Y90.077 E2.26044
G1 X117.27 Y89.538 E2.28102
G1 X118.436 Y88.984 E2.30571
G1 X118.519 Y88.949 E2.30743
G1 X119.526 Y88.567 E2.32803
G1 X120.558 Y88.262 E2.34861
G1 X121.61 Y88.034 E2.36919
G1 X122.676 Y87.885 E2.38978
G1 X124.149 Y87.81 E2.41798
G1 X125.851 Y87.81 E2.45053
G1 X126.927 Y87.85 E2.47113
G1 X127.997 Y87.97 E2.49172
G1 X129.054 Y88.169 E2.51229
G1 X130.095 Y88.445 E2.53288
G1 X131.481 Y88.949 E2.56109
G1 X131.564 Y88.984 E2.56281
G1 X132.54 Y89.438 E2.5834
G1 X133.479 Y89.964 E2.60398
G1 X134.377 Y90.559 E2.62458
G1 X135.228 Y91.218 E2.64517
G1 X136.18 Y92.089 E2.66984
G1 X137.911 Y93.82 E2.71666
G1 X138.643 Y94.609 E2.73724
G1 X139.315 Y95.45 E2.75783
G1 X139.923 Y96.339 E2.77843
G1 X140.462 Y97.27 E2.799
G1 X141.016 Y98.436 E2.82369
G1 X141.051 Y98.519 E2.82541
G1 X141.433 Y99.526 E2.84601
G1 X141.738 Y100.558 E2.86659
G1 X141.966 Y101.61 E2.88718
G1 X142.115 Y102.676 E2.90776
G1 X142.19 Y104.149 E2.93597
G1 X142.19 Y105.851 E2.96852
G1 X142.15 Y106.927 E2.98911
G1 X142.03 Y107.997 E3.0097
G1 X141.831 Y109.054 E3.03027
G1 X141.555 Y110.095 E3.05087
G1 X141.051 Y111.481 E3.07908
G1 X141.016 Y111.564 E3.0808
G1 X140.562 Y112.54 E3.10138
G1 X140.036 Y113.479 E3.12197
G1 X139.441 Y114.377 E3.14257
G1 X138.782 Y115.228 E3.16315
G1 X137.911 Y116.18 E3.18783
G1 X136.18 Y117.911 E3.23465
G1 X135.391 Y118.643 E3.25523
G1 X134.55 Y119.315 E3.27582
G1 X133.661 Y119.923 E3.29642
G1 X132.73 Y120.462 E3.31699
G1 X131.564 Y121.016 E3.34168
G1 X131.481 Y121.051 E3.3434
G1 X130.474 Y121.433 E3.364
G1 X129.442 Y121.738 E3.38458
G1 X128.39 Y121.966 E3.40517
G1 X127.324 Y122.115 E3.42575
G1 X125.851 Y122.19 E3.45396
G1 X124.149 Y122.19 E3.48651
G1 X123.073 Y122.15 E3.5071
G1 X122.003 Y122.03 E3.52769
G1 X120.946 Y121.831 E3.54826
G1 X119.905 Y121.555 E3.56886
G1 X118.519 Y121.051 E3.59706
G1 X118.436 Y121.016 E3.59879
G1 X117.46 Y120.562 E3.61937
G1 X116.521 Y120.036 E3.63996
G1 X115.623 Y119.441 E3.66056
G1 X114.772 Y118.782 E3.68114
G1 X113.82 Y117.911 E3.70582
G1 X112.089 Y116.18 E3.75264
G1 X111.357 Y115.391 E3.77322
G1 X110.685 Y114.55 E3.79381
G1 X110.077 Y113.661 E3.8144
G1 X109.538 Y112.73 E3.83498
G1 X108.984 Y111.564 E3.85967
G1 X108.949 Y111.481 E3.86139
G1 X108.567 Y110.474 E3.88199
G1 X108.262 Y109.442 E3.90257
G1 X108.034 Y108.39 E3.92315
G1 X107.885 Y107.324 E3.94374
G1 X107.81 Y105.851 E3.97194
G1 X107.81 Y104.149 E4.00449
G1 X107.85 Y103.073 E4.02509
G1 X107.97 Y102.003 E4.04568
G1 X108.169 Y100.946 E4.06625
G1 X108.445 Y99.905 E4.08684
G1 X108.949 Y98.519 E4.11505
G1 X108.984 Y98.436 E4.11677
G1 X109.438 Y97.46 E4.13736
G1 X109.964 Y96.521 E4.15794
G1 X110.559 Y95.623 E4.17854
G1 X111.218 Y94.772 E4.19913
G0 F1440 X111.614 Y95.016
G1 F300 X112.414 Y94.145 E4.22175
G1 X114.145 Y92.414 E4.26856
G1 X114.922 Y91.694 E4.28882
G1 X115.751 Y91.035 E4.30907
G1 X116.627 Y90.439 E4.32934
G1 X117.546 Y89.912 E4.3496
G1 X118.615 Y89.407 E4.37221
G1 X118.698 Y89.372 E4.37393
G1 X119.688 Y88.998 E4.39417
G1 X120.705 Y88.699 E4.41444
G1 X121.741 Y88.478 E4.4347
G1 X122.79 Y88.336 E4.45495
G1 X124.149 Y88.27 E4.48097
G1 X125.851 Y88.27 E4.51352
G1 X126.909 Y88.31 E4.53377
G1 X127.962 Y88.43 E4.55403
G1 X129.002 Y88.629 E4.57428
G1 X130.025 Y88.905 E4.59455
G1 X131.302 Y89.372 E4.62055
G1 X131.385 Y89.407 E4.62228
G1 X132.345 Y89.856 E4.64254
G1 X133.268 Y90.375 E4.66279
G1 X134.15 Y90.962 E4.68306
G1 X134.984 Y91.614 E4.7033
G1 X135.855 Y92.414 E4.72592
G1 X137.586 Y94.145 E4.77274
G1 X138.306 Y94.922 E4.793
G1 X138.965 Y95.751 E4.81325
G1 X139.561 Y96.627 E4.83351
G1 X140.088 Y97.546 E4.85377
G1 X140.593 Y98.615 E4.87638
G1 X140.628 Y98.698 E4.87811
G1 X141.002 Y99.688 E4.89835
G1 X141.301 Y100.705 E4.91862
G1 X141.522 Y101.741 E4.93888
G1 X141.664 Y102.79 E4.95912
G1 X141.73 Y104.149 E4.98514
G1 X141.73 Y105.851 E5.01769
G1 X141.69 Y106.909 E5.03794
G1 X141.57 Y107.962 E5.05821
G1 X141.371 Y109.002 E5.07846
G1 X141.095 Y110.025 E5.09872
G1 X140.628 Y111.302 E5.12473
G1 X140.593 Y111.385 E5.12645
G1 X140.144 Y112.345 E5.14672
G1 X139.625 Y113.268 E5.16697
G1 X139.038 Y114.15 E5.18723
G1 X138.386 Y114.984 E5.20748
G1 X137.586 Y115.855 E5.23009
G1 X135.855 Y117.586 E5.27691
G1 X135.078 Y118.306 E5.29717
G1 X134.249 Y118.965 E5.31742
G1 X133.373 Y119.561 E5.33769
G1 X132.454 Y120.088 E5.35795
G1 X131.385 Y120.593 E5.38056
G1 X131.302 Y120.628 E5.38228
G1 X130.312 Y121.002 E5.40252
G1 X129.295 Y121.301 E5.42279
G1 X128.259 Y121.522 E5.44305
G1 X127.21 Y121.664 E5.4633
G1 X125.851 Y121.73 E5.48932
G1 X124.149 Y121.73 E5.52187
G1 X123.091 Y121.69 E5.54212
G1 X122.038 Y121.57 E5.56238
G1 X120.998 Y121.371 E5.58263
G1 X119.975 Y121.095 E5.6029
G1 X118.698 Y120.628 E5.6289
G1 X118.615 Y120.593 E5.63062
G1 X117.655 Y120.144 E5.65089
G1 X116.732 Y119.625 E5.67114
G1 X115.85 Y119.038 E5.69141
G1 X115.016 Y118.386 E5.71165
G1 X114.145 Y117.586 E5.73427
G1 X112.414 Y115.855 E5.78109
G1 X111.694 Y115.078 E5.80135
G1 X111.035 Y114.249 E5.8216
G1 X110.439 Y113.373 E5.84186
G1 X109.912 Y112.454 E5.86212
G1 X109.407 Y111.385 E5.88473
G1 X109.372 Y111.302 E5.88646
G1 X108.998 Y110.312 E5.90669
G1 X108.699 Y109.295 E5.92697
G1 X108.478 Y108.259 E5.94723
G1 X108.336 Y107.21 E5.96747
G1 X108.27 Y105.851 E5.99349
G1 X108.27 Y104.149 E6.02604
G1 X108.31 Y103.091 E6.04629
G1 X108.43 Y102.038 E6.06656
G1 X108.629 Y100.998 E6.08681
G1 X108.905 Y99.975 E6.10707
G1 X109.372 Y98.698 E6.13308
G1 X109.407 Y98.615 E6.1348
G1 X109.856 Y97.655 E6.15507
G1 X110.375 Y96.732 E6.17532
G1 X110.962 Y95.85 E6.19558
G1 X111.614 Y95.016 E6.21583
G0 F1440 X112.011 Y95.26
G1 F300 X112.74 Y94.471 E6.23637
G1 X114.471 Y92.74 E6.28319
G1 X115.235 Y92.032 E6.30311
G1 X116.051 Y91.385 E6.32302
G1 X116.915 Y90.802 E6.34296
G1 X117.821 Y90.288 E6.36288
G1 X118.793 Y89.831 E6.38342
G1 X118.876 Y89.796 E6.38514
G1 X119.851 Y89.429 E6.40507
G1 X120.851 Y89.137 E6.42499
G1 X121.871 Y88.923 E6.44492
G1 X122.903 Y88.787 E6.46483
G1 X124.149 Y88.73 E6.48868
G1 X125.851 Y88.73 E6.52123
G1 X126.892 Y88.77 E6.54116
G1 X127.927 Y88.89 E6.56108
G1 X128.949 Y89.088 E6.58099
G1 X129.954 Y89.365 E6.60093
G1 X131.124 Y89.796 E6.62477
G1 X131.207 Y89.831 E6.6265
G1 X132.15 Y90.273 E6.64641
G1 X133.057 Y90.785 E6.66633
G1 X133.922 Y91.365 E6.68625
G1 X134.74 Y92.011 E6.70618
G1 X135.529 Y92.74 E6.72673
G1 X137.26 Y94.471 E6.77355
G1 X137.968 Y95.235 E6.79347
G1 X138.615 Y96.051 E6.81338
G1 X139.198 Y96.915 E6.83332
G1 X139.712 Y97.821 E6.85324
G1 X140.169 Y98.793 E6.87378
G1 X140.204 Y98.876 E6.8755
G1 X140.571 Y99.851 E6.89542
G1 X140.863 Y100.851 E6.91535
G1 X141.077 Y101.871 E6.93528
G1 X141.213 Y102.903 E6.95519
G1 X141.27 Y104.149 E6.97904
G1 X141.27 Y105.851 E7.01159
G1 X141.23 Y106.892 E7.03151
G1 X141.11 Y107.927 E7.05144
G1 X140.912 Y108.949 E7.07135
G1 X140.635 Y109.954 E7.09129
G1 X140.204 Y111.124 E7.11513
G1 X140.169 Y111.207 E7.11685
G1 X139.727 Y112.15 E7.13677
G1 X139.215 Y113.057 E7.15669
G1 X138.635 Y113.922 E7.17661
G1 X137.989 Y114.74 E7.19654
G1 X137.26 Y115.529 E7.21709
G1 X135.529 Y117.26 E7.2639
G1 X134.765 Y117.968 E7.28382
G1 X133.949 Y118.615 E7.30374
G1 X133.085 Y119.198 E7.32367
G1 X132.179 Y119.712 E7.34359
G1 X131.207 Y120.169 E7.36414
G1 X131.124 Y120.204 E7.36586
G1 X130.149 Y120.571 E7.38578
G1 X129.149 Y120.863 E7.4057
G1 X128.129 Y121.077 E7.42564
G1 X127.097 Y121.213 E7.44554
G1 X125.851 Y121.27 E7.4694
G1 X124.149 Y121.27 E7.50195
G1 X123.108 Y121.23 E7.52187
G1 X122.073 Y121.11 E7.5418
G1 X121.051 Y120.912 E7.56171
G1 X120.046 Y120.635 E7.58164
G1 X118.876 Y120.204 E7.60549
G1 X118.793 Y120.169 E7.60721
G1 X117.85 Y119.727 E7.62713
G1 X116.943 Y119.215 E7.64705
G1 X116.078 Y118.635 E7.66697
G1 X115.26 Y117.989 E7.6869
G1 X114.471 Y117.26 E7.70744
G1 X112.74 Y115.529 E7.75426
G1 X112.032 Y114.765 E7.77418
G1 X111.385 Y113.949 E7.7941
G1 X110.802 Y113.085 E7.81403
G1 X110.288 Y112.179 E7.83395
G1 X109.831 Y111.207 E7.85449
G1 X109.796 Y111.124 E7.85622
G1 X109.429 Y110.149 E7.87614
G1 X109.137 Y109.149 E7.89606
G1 X108.923 Y108.129 E7.91599
G1 X108.787 Y107.097 E7.9359
G1 X108.73 Y105.851 E7.95976
G1 X108.73 Y104.149 E7.99231
G1 X108.77 Y103.108 E8.01223
G1 X108.89 Y102.073 E8.03216
G1 X109.088 Y101.051 E8.05206
G1 X109.365 Y100.046 E8.072
G1 X109.796 Y98.876 E8.09585
G1 X109.831 Y98.793 E8.09757
G1 X110.273 Y97.85 E8.11749
G1 X110.785 Y96.943 E8.13741
G1 X111.365 Y96.078 E8.15732
G1 X112.011 Y95.26 E8.17726
G0 F1440 X112.406 Y95.505
G1 F300 X113.065 Y94.796 E8.19577
G1 X114.796 Y93.065 E8.24259
G1 X115.548 Y92.37 E8.26217
G1 X116.351 Y91.735 E8.28175
G1 X117.202 Y91.165 E8.30134
G1 X118.095 Y90.664 E8.32092
G1 X118.972 Y90.255 E8.33942
G1 X119.055 Y90.22 E8.34115
G1 X120.013 Y89.859 E8.36073
G1 X120.997 Y89.575 E8.38031
G1 X122 Y89.367 E8.3999
G1 X123.015 Y89.239 E8.41947
G1 X124.149 Y89.19 E8.44118
G1 X125.851 Y89.19 E8.47373
G1 X126.874 Y89.23 E8.49331
G1 X127.891 Y89.35 E8.51289
G1 X128.895 Y89.548 E8.53246
G1 X129.881 Y89.825 E8.55205
G1 X130.945 Y90.22 E8.57375
G1 X131.028 Y90.255 E8.57548
G1 X131.955 Y90.689 E8.59505
G1 X132.846 Y91.195 E8.61465
G1 X133.694 Y91.768 E8.63422
G1 X134.495 Y92.406 E8.6538
G1 X135.204 Y93.065 E8.67232
G1 X136.935 Y94.796 E8.71913
G1 X137.63 Y95.548 E8.73872
G1 X138.265 Y96.351 E8.7583
G1 X138.835 Y97.202 E8.77788
G1 X139.336 Y98.095 E8.79747
G1 X139.745 Y98.972 E8.81597
G1 X139.78 Y99.055 E8.8177
G1 X140.141 Y100.013 E8.83727
G1 X140.425 Y100.997 E8.85686
G1 X140.633 Y102 E8.87645
G1 X140.761 Y103.015 E8.89602
G1 X140.81 Y104.149 E8.91772
G1 X140.81 Y105.851 E8.95027
G1 X140.77 Y106.874 E8.96985
G1 X140.65 Y107.891 E8.98944
G1 X140.452 Y108.895 E9.00901
G1 X140.175 Y109.881 E9.0286
G1 X139.78 Y110.945 E9.0503
G1 X139.745 Y111.028 E9.05202
G1 X139.311 Y111.955 E9.0716
G1 X138.805 Y112.846 E9.09119
G1 X138.232 Y113.694 E9.11077
G1 X137.594 Y114.495 E9.13035
G1 X136.935 Y115.204 E9.14886
G1 X135.204 Y116.935 E9.19568
G1 X134.452 Y117.63 E9.21526
G1 X133.649 Y118.265 E9.23484
G1 X132.798 Y118.835 E9.25443
G1 X131.905 Y119.336 E9.27401
G1 X131.028 Y119.745 E9.29252
G1 X130.945 Y119.78 E9.29424
G1 X129.987 Y120.141 E9.31382
G1 X129.003 Y120.425 E9.33341
G1 X128 Y120.633 E9.353
G1 X126.985 Y120.761 E9.37256
G1 X125.851 Y120.81 E9.39427
G1 X124.149 Y120.81 E9.42682
G1 X123.126 Y120.77 E9.4464
G1 X122.109 Y120.65 E9.46599
G1 X121.105 Y120.452 E9.48556
G1 X120.119 Y120.175 E9.50514
G1 X119.055 Y119.78 E9.52685
G1 X118.972 Y119.745 E9.52857
G1 X118.045 Y119.311 E9.54815
G1 X117.154 Y118.805 E9.56774
G1 X116.306 Y118.232 E9.58732
G1 X115.505 Y117.594 E9.6069
G1 X114.796 Y116.935 E9.62541
G1 X113.065 Y115.204 E9.67223
G1 X112.37 Y114.452 E9.69181
G1 X111.735 Y113.649 E9.71139
G1 X111.165 Y112.798 E9.73098
G1 X110.664 Y111.905 E9.75056
G1 X110.255 Y111.028 E9.76907
G1 X110.22 Y110.945 E9.77079
G1 X109.859 Y109.987 E9.79037
G1 X109.575 Y109.003 E9.80996
G1 X109.367 Y108 E9.82955
G1 X109.239 Y106.985 E9.84911
G1 X109.19 Y105.851 E9.87082
G1 X109.19 Y104.149 E9.90337
G1 X109.23 Y103.126 E9.92295
G1 X109.35 Y102.109 E9.94253
G1 X109.548 Y101.105 E9.9621
G1 X109.825 Y100.119 E9.98169
G1 X110.22 Y99.055 E10.0034
G1 X110.255 Y98.972 E10.00512
G1 X110.689 Y98.045 E10.02469
G1 X111.195 Y97.154 E10.04429
G1 X111.768 Y96.306 E10.06386
G1 X112.406 Y95.505 E10.08345
G0 F1440 X112.801 Y95.752
G1 F300 X113.39 Y95.121 E10.09996
G1 X115.121 Y93.39 E10.14677
G1 X115.86 Y92.708 E10.166
G1 X116.651 Y92.086 E10.18525
G1 X117.488 Y91.53 E10.20447
G1 X118.368 Y91.041 E10.22372
G1 X119.151 Y90.679 E10.24022
G1 X119.234 Y90.644 E10.24194
G1 X120.175 Y90.29 E10.26117
G1 X121.142 Y90.013 E10.2804
G1 X122.128 Y89.813 E10.29964
G1 X123.126 Y89.691 E10.31887
G1 X124.149 Y89.65 E10.33845
G1 X125.851 Y89.65 E10.371
G1 X126.856 Y89.69 E10.39024
G1 X127.855 Y89.81 E10.40948
G1 X128.841 Y90.008 E10.42871
G1 X129.808 Y90.285 E10.44795
G1 X130.766 Y90.644 E10.46752
G1 X130.849 Y90.679 E10.46924
G1 X131.76 Y91.106 E10.48848
G1 X132.633 Y91.605 E10.50771
G1 X133.465 Y92.171 E10.52696
G1 X134.248 Y92.801 E10.54618
G1 X134.879 Y93.39 E10.56268
G1 X136.61 Y95.121 E10.6095
G1 X137.292 Y95.86 E10.62873
G1 X137.914 Y96.651 E10.64798
G1 X138.47 Y97.488 E10.6672
G1 X138.959 Y98.368 E10.68645
G1 X139.321 Y99.151 E10.70295
G1 X139.356 Y99.234 E10.70467
G1 X139.71 Y100.175 E10.7239
G1 X139.987 Y101.142 E10.74313
G1 X140.187 Y102.128 E10.76237
G1 X140.309 Y103.126 E10.7816
